X: 31571
T: Páití O'Leary's
R: jig
M: 6/8
K: Dmajor
|:A2A AdB|AFA F2E|D>DD AFA|BGE EFG|
ABA AdB|AFA F2A|dcd ede|1 fdc d2B:|2 fdc d2A||
|:dfe d2B|AFA d2e|fdd add|fee efe|
dfe d2B|AFA d2e|f3 afd|1 efe dAB/c/:|2 efe d2B||

